assets/landing/benefits/comprehensive.svg

<svg width="40" height="40" viewBox="0 0 40 40" fill="none" xmlns="http://www.w3.org/2000/svg">
<path fill-rule="evenodd" clip-rule="evenodd" d="M0 0H2.5V37.5H40V40H0V0ZM25 8.75C25 8.41848 25.1317 8.10054 25.3661 7.86612C25.6005 7.6317 25.9185 7.5 26.25 7.5H36.25C36.5815 7.5 36.8995 7.6317 37.1339 7.86612C37.3683 8.10054 37.5 8.41848 37.5 8.75V18.75C37.5 19.0815 37.3683 19.3995 37.1339 19.6339C36.8995 19.8683 36.5815 20 36.25 20C35.9185 20 35.6005 19.8683 35.3661 19.6339C35.1317 19.3995 35 19.0815 35 18.75V12.25L25.9675 23.2925C25.8569 23.4275 25.7193 23.5378 25.5635 23.6164C25.4078 23.6949 25.2373 23.74 25.063 23.7488C24.8887 23.7575 24.7146 23.7296 24.5518 23.667C24.3889 23.6043 24.241 23.5083 24.1175 23.385L17.65 16.9175L8.51 29.485C8.31006 29.7392 8.01935 29.9061 7.69896 29.9505C7.37857 29.9949 7.05346 29.9133 6.79193 29.723C6.5304 29.5327 6.35283 29.2484 6.29653 28.9299C6.24022 28.6114 6.30957 28.2834 6.49 28.015L16.49 14.265C16.5961 14.1188 16.7327 13.9973 16.8903 13.909C17.0479 13.8206 17.2228 13.7675 17.4029 13.7532C17.583 13.739 17.7641 13.7639 17.9336 13.8264C18.1032 13.8888 18.2572 13.9873 18.385 14.115L24.9075 20.64L33.6125 10H26.25C25.9185 10 25.6005 9.8683 25.3661 9.63388C25.1317 9.39946 25 9.08152 25 8.75Z" fill="#03E2B3"/>
</svg>

<svg xmlns="http://www.w3.org/2000/svg" fill="#03E2B3" viewBox="0 0 40 40">
  <path stroke="none" fill-rule="evenodd" d="M0 0h2.5v37.5H40V40H0V0Zm25 8.75a1.25 1.25 0 0 1 1.25-1.25h10a1.25 1.25 0 0 1 1.25 1.25v10a1.25 1.25 0 0 1-2.5 0v-6.5l-9.03 11.04a1.25 1.25 0 0 1-1.85.1l-6.47-6.47-9.14 12.56a1.25 1.25 0 0 1-2.02-1.46l10-13.75a1.25 1.25 0 0 1 1.9-.15l6.52 6.52L33.6 10h-7.36A1.25 1.25 0 0 1 25 8.75Z" clip-rule="evenodd"/>
</svg>
